X: 22944
T: Larry The Beer Drinker
R: jig
M: 6/8
K: Dmajor
|:"D"D2F FEF|"D"AFE F2E|"G"D2F FEF|"A"AFD E2F|
"D"D2F FEF|"D"AFA d2A|"G"def edB|"A"AFD E2F:|
|:"Bm"d2f edB|"Bm"ABA ABc#|"A"def edB|"A"AFD E2A|
"G"d2f edB|"G"ABA ABc#|"A"dc#d BdB|"A"AFD EFE:|

